; generated by PrusaSlicer 2.3.3 on 2021-11-27 at 12:51:33 UTC

; 

; external perimeters extrusion width = 0.45mm
; perimeters extrusion width = 0.45mm
; infill extrusion width = 0.45mm
; solid infill extrusion width = 0.45mm
; top infill extrusion width = 0.40mm
; first layer extrusion width = 0.42mm

M73 P0 R154
M73 Q0 S156
M201 X1000 Y1000 Z200 E5000 ; sets maximum accelerations, mm/sec^2
M203 X200 Y200 Z12 E120 ; sets maximum feedrates, mm/sec
M204 P1250 R1250 T1250 ; sets acceleration (P, T) and retract acceleration (R), mm/sec^2
M205 X8.00 Y8.00 Z0.40 E4.50 ; sets the jerk limits, mm/sec
M205 S0 T0 ; sets the minimum extruding and travel feed rate, mm/sec
M107
;TYPE:Custom
M862.3 P "MK3S" ; printer model check
M862.1 P0.4 ; nozzle diameter check
M115 U3.10.0 ; tell printer latest fw version
G90 ; use absolute coordinates
M83 ; extruder relative mode
M104 S240 ; set extruder temp
M140 S85 ; set bed temp
M190 S85 ; wait for bed temp
M109 S240 ; wait for extruder temp
G28 W ; home all without mesh bed level
G80 ; mesh bed leveling
G1 Y-3.0 F1000.0 ; go outside print area
G92 E0.0
G1 X60.0 E9.0 F1000.0 ; intro line
G1 X100.0 E12.5 F1000.0 ; intro line
G92 E0.0
M221 S95

; Don't change E values below. Excessive value can damage the printer.

G21 ; set units to millimeters
G90 ; use absolute coordinates
M83 ; use relative distances for extrusion
M900 K0.08 ; Filament gcode LA 1.5
M900 K45 ; Filament gcode LA 1.0
;LAYER_CHANGE
;Z:0.2
;HEIGHT:0.2
;BEFORE_LAYER_CHANGE
G92 E0.0
;0.2


G1 E-1.00000 F2100.000
G1 Z0.200 F10800.000
;AFTER_LAYER_CHANGE
;0.2
; printing object ClipsCompleteSet.stl id:0 copy 0
G1 Z0.400
G1 X103.677 Y138.946
G1 Z0.200
G1 E1.00000 F2100.000
M204 S1000
;TYPE:Perimeter
;WIDTH:0.42
G1 F1200.000
G1 X121.340 Y138.946 E0.55381
G1 X121.635 Y138.994 E0.00937
G1 X121.871 Y139.118 E0.00837
G1 X121.992 Y139.231 E0.00521
G1 X122.121 Y139.423 E0.00723
G1 X122.195 Y139.641 E0.00722
G1 X122.213 Y139.829 E0.00592
G1 X122.213 Y151.556 E0.36767
G1 X122.191 Y151.910 E0.01113
G1 X122.132 Y152.235 E0.01038
G1 X122.033 Y152.551 E0.01038
G1 X121.898 Y152.853 E0.01038
G1 X121.726 Y153.136 E0.01038
G1 X121.522 Y153.397 E0.01038
G1 X121.288 Y153.631 E0.01038
G1 X121.027 Y153.835 E0.01038
G1 X120.744 Y154.006 E0.01038
G1 X120.442 Y154.142 E0.01038
G1 X120.126 Y154.241 E0.01038
G1 X119.801 Y154.300 E0.01038
G1 X119.447 Y154.322 E0.01113
G1 X104.998 Y154.322 E0.45302
G1 X93.673 Y154.373 E0.35510
G1 X85.956 Y162.090 E0.34217
G1 X85.691 Y162.325 E0.01112
G1 X85.418 Y162.513 E0.01038
G1 X85.125 Y162.667 E0.01038
G1 X84.815 Y162.785 E0.01038
G1 X84.494 Y162.864 E0.01038
G1 X84.166 Y162.904 E0.01038
G1 X83.834 Y162.904 E0.01038
G1 X83.506 Y162.864 E0.01038
G1 X83.185 Y162.785 E0.01038
G1 X82.875 Y162.667 E0.01038
G1 X82.582 Y162.513 E0.01038
G1 X82.309 Y162.325 E0.01038
G1 X82.044 Y162.090 E0.01112
G1 X79.580 Y159.626 E0.10926
G1 X79.278 Y159.291 E0.01414
G1 X79.027 Y158.944 E0.01341
G1 X78.817 Y158.577 E0.01327
G1 X78.651 Y158.194 E0.01307
G1 X78.531 Y157.804 E0.01281
G1 X78.457 Y157.412 E0.01250
G1 X78.431 Y157.025 E0.01217
G1 X78.452 Y156.648 E0.01183
G1 X78.518 Y156.287 E0.01150
G1 X78.627 Y155.947 E0.01120
G1 X78.777 Y155.631 E0.01095
G1 X78.965 Y155.344 E0.01078
G1 X79.206 Y155.066 E0.01154
G1 X86.786 Y147.486 E0.33609
G1 X86.837 Y136.161 E0.35510
G1 X86.837 Y121.713 E0.45302
G1 X86.859 Y121.358 E0.01113
G1 X86.918 Y121.033 E0.01038
G1 X87.017 Y120.717 E0.01038
G1 X87.153 Y120.415 E0.01038
G1 X87.324 Y120.132 E0.01038
G1 X87.528 Y119.871 E0.01038
G1 X87.762 Y119.637 E0.01038
G1 X88.023 Y119.433 E0.01038
G1 X88.306 Y119.262 E0.01038
G1 X88.608 Y119.126 E0.01038
G1 X88.924 Y119.027 E0.01038
G1 X89.249 Y118.968 E0.01038
G1 X89.604 Y118.946 E0.01112
G1 X101.417 Y118.949 E0.37041
G1 X101.686 Y119.014 E0.00867
G1 X101.833 Y119.092 E0.00521
G1 X101.962 Y119.198 E0.00521
G1 X102.067 Y119.326 E0.00521
G1 X102.145 Y119.473 E0.00521
G1 X102.210 Y119.742 E0.00867
G1 X102.213 Y137.483 E0.55626
G1 X103.634 Y138.904 E0.06302
G1 X103.833 Y138.569 F10800.000
;TYPE:External perimeter
G1 F1200.000
G1 X121.352 Y138.569 E0.54930
G1 X121.519 Y138.580 E0.00524
G1 X121.756 Y138.635 E0.00765
G1 X121.979 Y138.736 E0.00765
G1 X122.106 Y138.822 E0.00482
G1 X122.282 Y138.986 E0.00754
G1 X122.462 Y139.255 E0.01015
G1 X122.566 Y139.561 E0.01014
G1 X122.590 Y139.811 E0.00786
G1 X122.590 Y151.567 E0.36861
G1 X122.566 Y151.955 E0.01220
G1 X122.499 Y152.326 E0.01181
G1 X122.387 Y152.685 E0.01181
G1 X122.232 Y153.029 E0.01181
G1 X122.037 Y153.351 E0.01181
G1 X121.805 Y153.648 E0.01181
G1 X121.539 Y153.914 E0.01181
G1 X121.242 Y154.146 E0.01181
G1 X120.920 Y154.341 E0.01181
G1 X120.576 Y154.496 E0.01181
G1 X120.217 Y154.608 E0.01181
G1 X119.846 Y154.675 E0.01181
G1 X119.458 Y154.699 E0.01220
G1 X104.999 Y154.699 E0.45335
G1 X93.830 Y154.750 E0.35021
G1 X86.215 Y162.365 E0.33767
G1 X85.924 Y162.623 E0.01220
G1 X85.613 Y162.837 E0.01181
G1 X85.280 Y163.012 E0.01181
G1 X84.928 Y163.145 E0.01181
G1 X84.562 Y163.235 E0.01181
G1 X84.188 Y163.281 E0.01181
G1 X83.812 Y163.281 E0.01181
G1 X83.438 Y163.235 E0.01181
G1 X83.072 Y163.145 E0.01181
G1 X82.720 Y163.012 E0.01181
G1 X82.387 Y162.837 E0.01181
G1 X82.076 Y162.623 E0.01181
G1 X81.785 Y162.365 E0.01220
G1 X79.306 Y159.885 E0.10993
G1 X78.984 Y159.528 E0.01508
G1 X78.710 Y159.149 E0.01468
G1 X78.480 Y158.746 E0.01455
G1 X78.297 Y158.326 E0.01437
G1 X78.164 Y157.895 E0.01414
G1 X78.083 Y157.460 E0.01388
G1 X78.054 Y157.027 E0.01359
G1 X78.077 Y156.604 E0.01330
G1 X78.151 Y156.195 E0.01301
G1 X78.275 Y155.808 E0.01276
G1 X78.447 Y155.447 E0.01255
G1 X78.663 Y155.116 E0.01240
G1 X78.931 Y154.808 E0.01276
M73 Q0 S155
G1 X86.410 Y147.329 E0.33163
G1 X86.460 Y136.160 E0.35021
G1 X86.460 Y121.701 E0.45335
G1 X86.484 Y121.313 E0.01220
G1 X86.552 Y120.942 E0.01181
G1 X86.664 Y120.583 E0.01181
G1 X86.818 Y120.239 E0.01181
G1 X87.013 Y119.917 E0.01181
G1 X87.245 Y119.621 E0.01181
G1 X87.512 Y119.354 E0.01181
G1 X87.808 Y119.122 E0.01181
G1 X88.130 Y118.927 E0.01181
G1 X88.474 Y118.773 E0.01181
G1 X88.833 Y118.661 E0.01181
G1 X89.204 Y118.593 E0.01181
G1 X89.592 Y118.569 E0.01220
G1 X101.442 Y118.572 E0.37155
G1 X101.598 Y118.593 E0.00493
G1 X101.831 Y118.664 E0.00765
G1 X102.044 Y118.777 E0.00754
G1 X102.229 Y118.930 E0.00754
G1 X102.382 Y119.116 E0.00754
G1 X102.495 Y119.328 E0.00754
G1 X102.566 Y119.561 E0.00765
G1 X102.587 Y119.717 E0.00493
G1 X102.590 Y137.327 E0.55213
G1 X103.790 Y138.527 E0.05322
G1 X103.842 Y138.969 F10800.000
;WIPE_START
G1 F8640.000
G1 X107.905 Y138.537 E-0.95000
;WIPE_END
G1 E-0.05000 F2100.000
G1 Z0.400 F10800.000
G1 X120.888 Y139.059
G1 Z0.200
G1 E1.00000 F2100.000
;TYPE:Solid infill
;WIDTH:0.420907
G1 F1200.000
G1 X121.930 Y140.102 E0.04634
G1 X121.930 Y140.637 E0.01680
G1 X120.523 Y139.229 E0.06256
G1 X119.988 Y139.229 E0.01680
G1 X121.930 Y141.171 E0.08632
G1 X121.930 Y141.706 E0.01680
G1 X119.454 Y139.229 E0.11008
G1 X118.919 Y139.229 E0.01680
G1 X121.930 Y142.240 E0.13384
G1 X121.930 Y142.775 E0.01680
G1 X118.384 Y139.229 E0.15760
G1 X117.850 Y139.229 E0.01680
G1 X121.930 Y143.309 E0.18136
G1 X121.930 Y143.844 E0.01680
G1 X117.315 Y139.229 E0.20512
G1 X116.781 Y139.229 E0.01680
G1 X121.930 Y144.378 E0.22888
G1 X121.930 Y144.913 E0.01680
G1 X116.246 Y139.229 E0.25264
G1 X115.712 Y139.229 E0.01680
G1 X121.930 Y145.448 E0.27640
G1 X121.930 Y145.982 E0.01680
G1 X115.177 Y139.229 E0.30016
G1 X114.643 Y139.229 E0.01680
G1 X121.930 Y146.517 E0.32392
G1 X121.930 Y147.051 E0.01680
G1 X114.108 Y139.229 E0.34768
G1 X113.573 Y139.229 E0.01680
G1 X121.930 Y147.586 E0.37144
G1 X121.930 Y148.120 E0.01680
G1 X113.039 Y139.229 E0.39520
G1 X112.504 Y139.229 E0.01680
G1 X121.930 Y148.655 E0.41896
G1 X121.930 Y149.189 E0.01680
G1 X111.970 Y139.229 E0.44272
G1 X111.435 Y139.229 E0.01680
G1 X121.930 Y149.724 E0.46648
G1 X121.930 Y150.259 E0.01680
G1 X110.901 Y139.229 E0.49024
G1 X110.366 Y139.229 E0.01680
G1 X121.930 Y150.793 E0.51400
G1 X121.930 Y151.328 E0.01680
G1 X109.832 Y139.229 E0.53776
G1 X109.297 Y139.229 E0.01680
G1 X121.912 Y151.844 E0.56072
G1 X121.820 Y152.286 E0.01420
G1 X108.762 Y139.229 E0.58038
G1 X108.228 Y139.229 E0.01680
G1 X121.670 Y152.671 E0.59746
G1 X121.470 Y153.005 E0.01225
G1 X107.693 Y139.229 E0.61234
G1 X107.159 Y139.229 E0.01680
G1 X121.224 Y153.295 E0.62520
G1 X120.940 Y153.545 E0.01191
G1 X106.624 Y139.229 E0.63630
G1 X106.090 Y139.229 E0.01680
G1 X120.615 Y153.754 E0.64562
G1 X120.236 Y153.910 E0.01287
G1 X105.555 Y139.229 E0.65256
G1 X105.021 Y139.229 E0.01680
G1 X119.804 Y154.012 E0.65709
G1 X119.438 Y154.039 E0.01153
G1 X119.296 Y154.039 E0.00446
G1 X104.316 Y139.059 E0.66582
;WIPE_START
G1 F8640.000
G1 X107.226 Y141.969 E-0.95000
;WIPE_END
G1 E-0.05000 F2100.000
G1 Z0.400 F10800.000
G1 X100.891 Y119.062
G1 Z0.200
G1 E1.00000 F2100.000
G1 F1200.000
G1 X101.927 Y120.099 E0.04607
G1 X101.927 Y120.634 E0.01680
G1 X100.526 Y119.232 E0.06229
G1 X99.991 Y119.232 E0.01681
G1 X101.927 Y121.168 E0.08607
G1 X101.927 Y121.703 E0.01680
G1 X99.456 Y119.232 E0.10984
G1 X98.921 Y119.232 E0.01681
G1 X101.927 Y122.237 E0.13361
G1 X101.927 Y122.772 E0.01680
G1 X98.387 Y119.231 E0.15738
G1 X97.852 Y119.231 E0.01681
G1 X101.928 Y123.307 E0.18115
G1 X101.928 Y123.841 E0.01680
G1 X97.317 Y119.231 E0.20492
G1 X96.783 Y119.231 E0.01681
G1 X101.928 Y124.376 E0.22869
G1 X101.928 Y124.911 E0.01680
G1 X96.248 Y119.231 E0.25246
G1 X95.713 Y119.231 E0.01681
G1 X101.928 Y125.445 E0.27623
G1 X101.928 Y125.980 E0.01680
G1 X95.179 Y119.231 E0.30000
G1 X94.644 Y119.230 E0.01681
G1 X101.928 Y126.515 E0.32377
G1 X101.928 Y127.049 E0.01680
G1 X94.109 Y119.230 E0.34754
G1 X93.575 Y119.230 E0.01681
G1 X101.928 Y127.584 E0.37132
G1 X101.928 Y128.119 E0.01680
G1 X93.040 Y119.230 E0.39509
G1 X92.505 Y119.230 E0.01681
G1 X101.929 Y128.653 E0.41886
G1 X101.929 Y129.188 E0.01680
G1 X91.970 Y119.230 E0.44263
G1 X91.436 Y119.230 E0.01681
G1 X101.929 Y129.723 E0.46640
G1 X101.929 Y130.257 E0.01680
G1 X90.901 Y119.229 E0.49017
G1 X90.366 Y119.229 E0.01681
G1 X101.929 Y130.792 E0.51394
G1 X101.929 Y131.327 E0.01680
G1 X89.832 Y119.229 E0.53771
G1 X89.315 Y119.247 E0.01625
G1 X101.929 Y131.861 E0.56068
M73 P0 R153
G1 X101.929 Y132.396 E0.01680
G1 X88.873 Y119.340 E0.58034
G1 X88.489 Y119.490 E0.01297
G1 X101.929 Y132.931 E0.59742
G1 X101.929 Y133.465 E0.01680
G1 X88.154 Y119.690 E0.61231
G1 X87.864 Y119.935 E0.01192
G1 X101.930 Y134.000 E0.62517
G1 X101.930 Y134.535 E0.01680
G1 X87.615 Y120.219 E0.63628
G1 X87.405 Y120.544 E0.01215
G1 X101.930 Y135.069 E0.64560
G1 X101.930 Y135.604 E0.01680
G1 X87.249 Y120.923 E0.65254
G1 X87.194 Y121.101 E0.00585
G1 X87.147 Y121.355 E0.00814
G1 X101.930 Y136.138 E0.65708
G1 X101.930 Y136.673 E0.01680
G1 X87.120 Y121.863 E0.65828
G1 X87.120 Y122.398 E0.01680
G1 X101.930 Y137.208 E0.65828
G1 X101.930 Y137.600 E0.01233
G1 X103.559 Y139.229 E0.07242
G1 X103.951 Y139.229 E0.01232
G1 X118.761 Y154.039 E0.65828
G1 X118.227 Y154.039 E0.01680
G1 X87.120 Y122.932 E1.38265
G1 X87.120 Y123.467 E0.01680
G1 X117.692 Y154.039 E1.35889
G1 X117.158 Y154.039 E0.01680
G1 X87.120 Y124.001 E1.33513
G1 X87.120 Y124.536 E0.01680
G1 X116.623 Y154.039 E1.31137
G1 X116.089 Y154.039 E0.01680
G1 X87.120 Y125.071 E1.28761
M73 Q0 S154
G1 X87.120 Y125.605 E0.01680
G1 X115.554 Y154.039 E1.26385
G1 X115.020 Y154.039 E0.01680
G1 X87.120 Y126.140 E1.24009
G1 X87.120 Y126.674 E0.01680
G1 X114.485 Y154.039 E1.21633
G1 X113.950 Y154.039 E0.01680
G1 X87.120 Y127.209 E1.19257
G1 X87.120 Y127.743 E0.01680
G1 X113.416 Y154.039 E1.16881
G1 X112.881 Y154.039 E0.01680
G1 X87.120 Y128.278 E1.14505
G1 X87.120 Y128.812 E0.01680
G1 X112.347 Y154.039 E1.12129
M73 P1 R153
M73 Q1 S154
G1 X111.812 Y154.039 E0.01680
G1 X87.120 Y129.347 E1.09753
G1 X87.120 Y129.881 E0.01680
G1 X111.278 Y154.039 E1.07377
G1 X110.743 Y154.039 E0.01680
G1 X87.120 Y130.416 E1.05001
G1 X87.120 Y130.951 E0.01680
G1 X110.209 Y154.039 E1.02625
G1 X109.674 Y154.039 E0.01680
G1 X87.120 Y131.485 E1.00249
G1 X87.120 Y132.020 E0.01680
G1 X109.139 Y154.039 E0.97873
G1 X108.605 Y154.039 E0.01680
G1 X87.120 Y132.554 E0.95497
G1 X87.120 Y133.089 E0.01680
G1 X108.070 Y154.039 E0.93121
G1 X107.536 Y154.039 E0.01680
G1 X87.120 Y133.623 E0.90745
G1 X87.120 Y134.158 E0.01680
G1 X107.001 Y154.039 E0.88369
G1 X106.467 Y154.039 E0.01680
G1 X87.120 Y134.692 E0.85993
G1 X87.120 Y135.227 E0.01680
G1 X105.932 Y154.039 E0.83617
G1 X105.398 Y154.039 E0.01680
G1 X87.120 Y135.762 E0.81241
G1 X87.119 Y136.296 E0.01678
G1 X104.864 Y154.040 E0.78870
G1 X104.332 Y154.042 E0.01673
G1 X87.117 Y136.828 E0.76515
G1 X87.115 Y137.360 E0.01673
G1 X103.799 Y154.045 E0.74161
M73 P1 R152
G1 X103.267 Y154.047 E0.01673
G1 X87.112 Y137.892 E0.71806
G1 X87.110 Y138.424 E0.01673
G1 X102.735 Y154.049 E0.69452
G1 X102.203 Y154.052 E0.01673
G1 X87.107 Y138.956 E0.67097
G1 X87.105 Y139.488 E0.01673
G1 X101.671 Y154.054 E0.64743
G1 X101.139 Y154.057 E0.01673
G1 X87.103 Y140.021 E0.62388
G1 X87.100 Y140.553 E0.01673
G1 X100.607 Y154.059 E0.60033
G1 X100.074 Y154.061 E0.01673
G1 X87.098 Y141.085 E0.57679
G1 X87.095 Y141.617 E0.01673
G1 X99.542 Y154.064 E0.55324
G1 X99.010 Y154.066 E0.01673
G1 X87.093 Y142.149 E0.52970
G1 X87.091 Y142.681 E0.01673
G1 X98.478 Y154.069 E0.50615
G1 X97.946 Y154.071 E0.01673
G1 X87.088 Y143.213 E0.48261
G1 X87.086 Y143.746 E0.01673
G1 X97.414 Y154.073 E0.45906
G1 X96.882 Y154.076 E0.01673
G1 X87.083 Y144.278 E0.43552
G1 X87.081 Y144.810 E0.01673
G1 X96.349 Y154.078 E0.41197
G1 X95.817 Y154.081 E0.01673
G1 X87.078 Y145.342 E0.38842
G1 X87.076 Y145.874 E0.01673
G1 X95.285 Y154.083 E0.36488
G1 X94.753 Y154.086 E0.01673
G1 X87.074 Y146.406 E0.34133
G1 X87.071 Y146.938 E0.01673
G1 X94.221 Y154.088 E0.31779
G1 X93.689 Y154.090 E0.01673
G1 X87.069 Y147.471 E0.29424
G1 X87.068 Y147.604 E0.00420
G1 X86.868 Y147.804 E0.00890
G1 X93.355 Y154.291 E0.28834
G1 X93.088 Y154.559 E0.01188
G1 X86.601 Y148.072 E0.28834
G1 X86.333 Y148.339 E0.01188
G1 X92.820 Y154.826 E0.28834
G1 X92.553 Y155.093 E0.01188
G1 X86.066 Y148.606 E0.28834
G1 X85.799 Y148.873 E0.01188
G1 X92.286 Y155.360 E0.28834
G1 X92.019 Y155.628 E0.01188
G1 X85.532 Y149.141 E0.28834
G1 X85.264 Y149.408 E0.01188
G1 X91.751 Y155.895 E0.28834
G1 X91.484 Y156.162 E0.01188
G1 X84.997 Y149.675 E0.28834
G1 X84.730 Y149.942 E0.01188
G1 X91.217 Y156.429 E0.28834
G1 X90.949 Y156.697 E0.01188
G1 X84.463 Y150.210 E0.28834
G1 X84.195 Y150.477 E0.01188
G1 X90.682 Y156.964 E0.28834
G1 X90.415 Y157.231 E0.01188
G1 X83.928 Y150.744 E0.28834
G1 X83.661 Y151.012 E0.01188
G1 X90.148 Y157.499 E0.28834
M73 Q1 S153
G1 X89.880 Y157.766 E0.01188
G1 X83.393 Y151.279 E0.28834
G1 X83.126 Y151.546 E0.01188
G1 X89.613 Y158.033 E0.28834
G1 X89.346 Y158.300 E0.01188
G1 X82.859 Y151.813 E0.28834
G1 X82.592 Y152.081 E0.01188
G1 X89.079 Y158.568 E0.28834
G1 X88.811 Y158.835 E0.01188
G1 X82.324 Y152.348 E0.28834
G1 X82.057 Y152.615 E0.01188
G1 X88.544 Y159.102 E0.28834
G1 X88.277 Y159.370 E0.01188
G1 X81.790 Y152.883 E0.28834
G1 X81.522 Y153.150 E0.01188
G1 X88.009 Y159.637 E0.28834
G1 X87.742 Y159.904 E0.01188
G1 X81.255 Y153.417 E0.28834
G1 X80.988 Y153.684 E0.01188
G1 X87.475 Y160.171 E0.28834
G1 X87.208 Y160.439 E0.01188
G1 X80.721 Y153.952 E0.28834
G1 X80.453 Y154.219 E0.01188
G1 X86.940 Y160.706 E0.28834
G1 X86.673 Y160.973 E0.01188
G1 X80.186 Y154.486 E0.28834
G1 X79.919 Y154.753 E0.01188
G1 X86.406 Y161.240 E0.28834
G1 X86.139 Y161.508 E0.01188
G1 X79.652 Y155.021 E0.28834
G1 X79.386 Y155.290 E0.01188
G1 X85.871 Y161.775 E0.28825
G1 X85.594 Y162.033 E0.01189
G1 X79.145 Y155.584 E0.28664
G1 X79.024 Y155.770 E0.00699
G1 X78.951 Y155.924 E0.00535
G1 X85.287 Y162.260 E0.28164
G1 X84.931 Y162.438 E0.01252
G1 X78.806 Y156.314 E0.27223
G1 X78.729 Y156.771 E0.01456
G1 X84.523 Y162.565 E0.25757
G1 X84.044 Y162.621 E0.01516
G1 X78.734 Y157.310 E0.23604
G1 X78.806 Y157.736 E0.01357
G1 X78.886 Y157.997 E0.00858
G1 X83.447 Y162.558 E0.20272
G1 X83.269 Y162.514 E0.00576
G1 X82.991 Y162.409 E0.00933
G1 X82.728 Y162.271 E0.00933
G1 X82.484 Y162.102 E0.00933
G1 X82.243 Y161.889 E0.01013
G1 X78.970 Y158.615 E0.14549
;WIPE_START
G1 F8640.000
G1 X81.879 Y161.525 E-0.95000
